X: 36
T:Fairy Lullaby
R:
M:3/4
L:1/4
K:A
AA/2cc/2| ee/2c3/2|ee/2c3/2| ec/2BE/2|AA/2cc/2| ee/2cE/2|AA/2Bc/2|BB/2A3/2|
AA/2cc/2| e/2e/2e/2c3/2|e/2e/2e/2c3/2| e/2e/2c/2B3/2|AA/2cc/2|e/2e/2e/2cE/2|AA/2Bc/2| BB/2A3/2||
